X:294
T:Golden Locks
R:Reel
B:The Athole Collection
M:C|
L:1/8
K:B Minor
a|feac B2Ba|ecac A2Aa|feac Bcde|fedc dBBa|f>eac B2Ba|ecac A2Ac|
BcdB cdea|f2ec dB~B2||FBDB FBdB|^GAEA CEA,C|FBDB FBdB|
ecfc dBB2|FBDB FBdB|^GAEA CEA,E|FBdB Acea|f2ec dB~B||

